X:1
T:Bank Holiday Reel
M:4/4
L:1/8
K:G
|A2 AF DFAF | GFEF G2 FG | ADED ADFD | AFGE DEFG |
|A2 AF DFAF | GFEF G2 FG | AFAd BGBd |[1cAGE DEFG:|[2cAGE DEFA |
|d2 ed cAAB | cded cAAc | d2 ed cAAB | cAGE EDFA |
|d2 ed cAAB | cded cAAe | f2 fd efed |[1cAGE DEFA: |[2cAGE D4 ||

